img/icons/phone-line.svg

<svg width="24" height="24" viewBox="0 0 24 24" fill="none" xmlns="http://www.w3.org/2000/svg">
<g clip-path="url(#clip0_26_26)">
<path d="M9.366 10.682C10.3043 12.3305 11.6695 13.6957 13.318 14.634L14.202 13.396C14.3442 13.1969 14.5543 13.0569 14.7928 13.0023C15.0313 12.9478 15.2814 12.9825 15.496 13.1C16.9103 13.8729 18.4722 14.3378 20.079 14.464C20.3298 14.4839 20.5638 14.5975 20.7345 14.7823C20.9052 14.9671 21 15.2094 21 15.461V19.923C21.0001 20.1706 20.9083 20.4094 20.7424 20.5932C20.5765 20.777 20.3483 20.8927 20.102 20.918C19.572 20.973 19.038 21 18.5 21C9.94 21 3 14.06 3 5.5C3 4.962 3.027 4.428 3.082 3.898C3.10725 3.6517 3.22298 3.42352 3.40679 3.25763C3.5906 3.09175 3.82941 2.99995 4.077 3H8.539C8.79056 2.99997 9.0329 3.09475 9.21768 3.26545C9.40247 3.43615 9.51613 3.67022 9.536 3.921C9.66222 5.52779 10.1271 7.08968 10.9 8.504C11.0175 8.71856 11.0522 8.96874 10.9977 9.2072C10.9431 9.44565 10.8031 9.65584 10.604 9.798L9.366 10.682ZM6.844 10.025L8.744 8.668C8.20478 7.50409 7.83535 6.26884 7.647 5H5.01C5.004 5.166 5.001 5.333 5.001 5.5C5 12.956 11.044 19 18.5 19C18.667 19 18.834 18.997 19 18.99V16.353C17.7312 16.1646 16.4959 15.7952 15.332 15.256L13.975 17.156C13.4287 16.9437 12.898 16.6931 12.387 16.406L12.329 16.373C10.3676 15.2567 8.74328 13.6324 7.627 11.671L7.594 11.613C7.30691 11.102 7.05628 10.5713 6.844 10.025Z" fill="#F79817"/>
</g>
<defs>
<clipPath id="clip0_26_26">
<rect width="24" height="24" fill="white"/>
</clipPath>
</defs>
</svg>

<svg width="24" height="24" fill="none" xmlns="http://www.w3.org/2000/svg"><path d="M9.366 10.682a10.555 10.555 0 003.952 3.952l.884-1.238a1 1 0 011.294-.296 11.422 11.422 0 004.583 1.364 1 1 0 01.921.997v4.462a1 1 0 01-.898.995A15.51 15.51 0 0118.5 21C9.94 21 3 14.06 3 5.5c0-.538.027-1.072.082-1.602A1 1 0 014.077 3h4.462a1 1 0 01.997.921A11.422 11.422 0 0010.9 8.504a1 1 0 01-.296 1.294l-1.238.884zm-2.522-.657l1.9-1.357A13.41 13.41 0 017.647 5H5.01c-.006.166-.009.333-.009.5C5 12.956 11.044 19 18.5 19c.167 0 .334-.003.5-.01v-2.637a13.413 13.413 0 01-3.668-1.097l-1.357 1.9a12.445 12.445 0 01-1.588-.75l-.058-.033a12.556 12.556 0 01-4.702-4.702l-.033-.058a12.444 12.444 0 01-.75-1.588z" fill="#0C163B"/></svg>
